X: 33343
T: Queen Of May, The
R: reel
M: 4/4
K: Edorian
|dcdf egdB|ADFD FAAG|Bddf edBc|dBAF BEE2|
dcdf egdB|ADFD FAAG|Bddf edBA|Bcef gfge||
Beef gfge|defg afdf|e^def gafe|dBAF BEE2|
Beef gfge|defg afdf|gbag fage|dBAF BEE2||

